X:0032
T:Highland Laddie.
M:2/4
L:1/8
Q:1/4=132
I: :: ::
Z:Jack Campin * www.campin.me.uk * 2009
K:G
e|dGBG|({Bc}d2)B2|eAAB|eAAe|dBgB|d2B2|(G/A/B/c/)   dA|BGG:|
g|edeg|     e2 dB|eAAB|eAAe|dgBg|d2B2|(G/A/)(B/c/) dA|BGG:|

